X:122
T:The Squirrel Hunter's Q.S.
S:American Veteran Fifer, #122
M:2/4
L:1/8
Q:1/8=180
K:G 
%%MIDI program 72
%%MIDI transpose 8
%%MIDI ratio 3 1
B/d/ | e>d BB/B/ | e/f/e/d/ BB/A/ | G/F/G/B/ dd/d/ | B/A/B/c/ d>d |
e/f/e/d/ B/A/B/d/ | e/f/e/d/ BB/A/ | G/F/G/B/ d/e/d/d/ | BAA :|
|: B/d/ | e>e aa/a/ | e/d/e/f/ g2 | G/B/G/B/ dd/d/ | B/G/B/c/ d2 |
e/ee/ aa/a/ | e/d/e/f/ g2 | G/B/G/B/ d/e/d/d/ | BAA :|


